configs/network-icons/lightlink-short.svg

<svg width="30" height="30" viewBox="0 0 30 30" fill="none" xmlns="http://www.w3.org/2000/svg">
<path d="M12.6023 16.3368C12.1695 16.816 12.1703 17.6023 12.6049 18.0834L15.7614 21.5776C16.196 22.0588 16.9055 22.0597 17.3392 21.5805C17.7721 21.1013 17.7712 20.315 17.3366 19.8339L14.1802 16.3396C13.7455 15.8585 13.0361 15.8576 12.6023 16.3368Z" fill="url(#paint0_linear_10152_72960)"/>
<path d="M23.3429 14.9327C23.7775 14.4516 23.7784 13.6653 23.3455 13.1861C22.9126 12.7069 22.2023 12.7078 21.7677 13.1889L17.34 18.0904C16.9054 18.5715 16.9836 18.485 16.5498 18.9651C15.5689 20.0509 14.2273 19.8817 13.7927 19.4006C13.7927 19.4006 15.7613 21.5798 15.7622 21.5808C16.1951 22.06 16.9054 22.0591 17.34 21.5779L23.3429 14.9327Z" fill="url(#paint1_linear_10152_72960)"/>
<path d="M29.676 13.2115C29.2431 12.7323 28.5328 12.7333 28.0982 13.2144L24.9417 16.7086C24.5071 17.1897 24.5062 17.9751 24.9391 18.4553C25.372 18.9345 26.0823 18.9335 26.5169 18.4524L29.6734 14.9582C30.108 14.4771 30.1089 13.6917 29.676 13.2115Z" fill="url(#paint2_linear_10152_72960)"/>
<path d="M17.3595 14.6024C17.7924 14.1232 17.7915 13.3369 17.3569 12.8558L14.2004 9.36155C13.7658 8.88044 13.0564 8.87949 12.6226 9.35869C12.1897 9.8379 12.1906 10.6242 12.6252 11.1053L15.7817 14.5996C16.2163 15.0807 16.9257 15.0816 17.3595 14.6024Z" fill="url(#paint3_linear_10152_72960)"/>
<path d="M6.61664 16.0068C6.18203 16.4879 6.18117 17.2742 6.61406 17.7534C7.04695 18.2326 7.75727 18.2317 8.19188 17.7505L12.6195 12.8491C13.0541 12.368 12.976 12.4545 13.4097 11.9744C14.3906 10.8885 15.7322 11.0578 16.1668 11.5389C16.1668 11.5389 14.1982 9.35965 14.1974 9.35869C13.7645 8.87949 13.0541 8.88044 12.6195 9.36155L6.61664 16.0068Z" fill="url(#paint4_linear_10152_72960)"/>
<path d="M0.324024 17.7393C0.756913 18.2185 1.46723 18.2176 1.90184 17.7365L5.05832 14.2422C5.49293 13.7611 5.49379 12.9748 5.0609 12.4956C4.62801 12.0164 3.91769 12.0173 3.48308 12.4984L0.326601 15.9927C-0.108006 16.4738 -0.108865 17.2592 0.324024 17.7393Z" fill="url(#paint5_linear_10152_72960)"/>
<defs>
<linearGradient id="paint0_linear_10152_72960" x1="9.62709" y1="13.1126" x2="18.6582" y2="21.1744" gradientUnits="userSpaceOnUse">
<stop offset="0.12" stop-color="#6978FF"/>
<stop offset="0.19" stop-color="#5F87FF"/>
<stop offset="0.35" stop-color="#4DA4FF"/>
<stop offset="0.51" stop-color="#40B9FF"/>
<stop offset="0.66" stop-color="#38C6FF"/>
<stop offset="0.81" stop-color="#36CBFF"/>
<stop offset="1" stop-color="#67FFFC"/>
</linearGradient>
<linearGradient id="paint1_linear_10152_72960" x1="7.86712" y1="29.3451" x2="34.7468" y2="4.38409" gradientUnits="userSpaceOnUse">
<stop offset="0.39" stop-color="#6978FF"/>
<stop offset="0.44" stop-color="#6184FF"/>
<stop offset="0.65" stop-color="#49AAFF"/>
<stop offset="0.81" stop-color="#3BC2FF"/>
<stop offset="0.91" stop-color="#36CBFF"/>
<stop offset="1" stop-color="#67FFFC"/>
</linearGradient>
<linearGradient id="paint2_linear_10152_72960" x1="29.1005" y1="13.9912" x2="8.37418" y2="31.3733" gradientUnits="userSpaceOnUse">
<stop offset="0.05" stop-color="#6978FF"/>
<stop offset="0.12" stop-color="#5F87FF"/>
<stop offset="0.3" stop-color="#4DA4FF"/>
<stop offset="0.48" stop-color="#40B9FF"/>
<stop offset="0.65" stop-color="#38C6FF"/>
<stop offset="0.81" stop-color="#36CBFF"/>
<stop offset="1" stop-color="#67FFFC"/>
</linearGradient>
<linearGradient id="paint3_linear_10152_72960" x1="13.7589" y1="10.1621" x2="17.0466" y2="14.1222" gradientUnits="userSpaceOnUse">
<stop offset="0.12" stop-color="#6978FF"/>
<stop offset="0.19" stop-color="#5F87FF"/>
<stop offset="0.35" stop-color="#4DA4FF"/>
<stop offset="0.51" stop-color="#40B9FF"/>
<stop offset="0.66" stop-color="#38C6FF"/>
<stop offset="0.81" stop-color="#36CBFF"/>
<stop offset="1" stop-color="#67FFFC"/>
</linearGradient>
<linearGradient id="paint4_linear_10152_72960" x1="2.84346" y1="24.9016" x2="15.7675" y2="11.1672" gradientUnits="userSpaceOnUse">
<stop offset="0.31" stop-color="#6978FF"/>
<stop offset="0.36" stop-color="#5F87FF"/>
<stop offset="0.48" stop-color="#4DA4FF"/>
<stop offset="0.59" stop-color="#40B9FF"/>
<stop offset="0.7" stop-color="#38C6FF"/>
<stop offset="0.81" stop-color="#36CBFF"/>
<stop offset="1" stop-color="#67FFFC"/>
</linearGradient>
<linearGradient id="paint5_linear_10152_72960" x1="14.0416" y1="0.715058" x2="0.225785" y2="15.021" gradientUnits="userSpaceOnUse">
<stop stop-color="#6978FF"/>
<stop offset="0.09" stop-color="#5F87FF"/>
<stop offset="0.28" stop-color="#4DA4FF"/>
<stop offset="0.46" stop-color="#40B9FF"/>
<stop offset="0.64" stop-color="#38C6FF"/>
<stop offset="0.81" stop-color="#36CBFF"/>
<stop offset="1" stop-color="#67FFFC"/>
</linearGradient>
</defs>
</svg>

<svg xmlns="http://www.w3.org/2000/svg" fill="none" viewBox="0 0 30 30">
  <path fill="url(#lightlink-short_svg__a)" d="M12.602 16.337c-.433.479-.432 1.265.003 1.746l3.156 3.495a1.044 1.044 0 0 0 1.578.003 1.336 1.336 0 0 0-.002-1.747L14.18 16.34a1.044 1.044 0 0 0-1.578-.003Z"/>
  <path fill="url(#lightlink-short_svg__b)" d="M23.343 14.933c.434-.481.435-1.268.003-1.747a1.044 1.044 0 0 0-1.578.003L17.34 18.09l-.79.875c-.981 1.086-2.323.917-2.757.436l1.97 2.18a1.044 1.044 0 0 0 1.577-.003l6.003-6.645Z"/>
  <path fill="url(#lightlink-short_svg__c)" d="M29.676 13.211a1.044 1.044 0 0 0-1.578.003l-3.156 3.495a1.335 1.335 0 0 0-.003 1.746c.433.48 1.143.479 1.578-.003l3.156-3.494a1.335 1.335 0 0 0 .003-1.747Z"/>
  <path fill="url(#lightlink-short_svg__d)" d="M17.36 14.602c.432-.479.431-1.265-.003-1.746L14.2 9.362a1.044 1.044 0 0 0-1.577-.003c-.433.479-.432 1.265.002 1.746l3.157 3.495a1.044 1.044 0 0 0 1.578.002Z"/>
  <path fill="url(#lightlink-short_svg__e)" d="M6.617 16.007a1.333 1.333 0 0 0-.003 1.746c.433.48 1.143.479 1.578-.003l4.428-4.9.79-.876c.98-1.085 2.322-.916 2.757-.435l-1.97-2.18a1.044 1.044 0 0 0-1.577.003l-6.003 6.645Z"/>
  <path fill="url(#lightlink-short_svg__f)" d="M.324 17.74a1.045 1.045 0 0 0 1.578-.003l3.156-3.495c.435-.48.436-1.267.003-1.746a1.044 1.044 0 0 0-1.578.002L.327 15.993a1.335 1.335 0 0 0-.003 1.746Z"/>
  <defs>
    <linearGradient id="lightlink-short_svg__a" x1="9.627" x2="18.658" y1="13.113" y2="21.174" gradientUnits="userSpaceOnUse">
      <stop offset=".12" stop-color="#6978FF"/>
      <stop offset=".19" stop-color="#5F87FF"/>
      <stop offset=".35" stop-color="#4DA4FF"/>
      <stop offset=".51" stop-color="#40B9FF"/>
      <stop offset=".66" stop-color="#38C6FF"/>
      <stop offset=".81" stop-color="#36CBFF"/>
      <stop offset="1" stop-color="#67FFFC"/>
    </linearGradient>
    <linearGradient id="lightlink-short_svg__b" x1="7.867" x2="34.747" y1="29.345" y2="4.384" gradientUnits="userSpaceOnUse">
      <stop offset=".39" stop-color="#6978FF"/>
      <stop offset=".44" stop-color="#6184FF"/>
      <stop offset=".65" stop-color="#49AAFF"/>
      <stop offset=".81" stop-color="#3BC2FF"/>
      <stop offset=".91" stop-color="#36CBFF"/>
      <stop offset="1" stop-color="#67FFFC"/>
    </linearGradient>
    <linearGradient id="lightlink-short_svg__c" x1="29.101" x2="8.374" y1="13.991" y2="31.373" gradientUnits="userSpaceOnUse">
      <stop offset=".05" stop-color="#6978FF"/>
      <stop offset=".12" stop-color="#5F87FF"/>
      <stop offset=".3" stop-color="#4DA4FF"/>
      <stop offset=".48" stop-color="#40B9FF"/>
      <stop offset=".65" stop-color="#38C6FF"/>
      <stop offset=".81" stop-color="#36CBFF"/>
      <stop offset="1" stop-color="#67FFFC"/>
    </linearGradient>
    <linearGradient id="lightlink-short_svg__d" x1="13.759" x2="17.047" y1="10.162" y2="14.122" gradientUnits="userSpaceOnUse">
      <stop offset=".12" stop-color="#6978FF"/>
      <stop offset=".19" stop-color="#5F87FF"/>
      <stop offset=".35" stop-color="#4DA4FF"/>
      <stop offset=".51" stop-color="#40B9FF"/>
      <stop offset=".66" stop-color="#38C6FF"/>
      <stop offset=".81" stop-color="#36CBFF"/>
      <stop offset="1" stop-color="#67FFFC"/>
    </linearGradient>
    <linearGradient id="lightlink-short_svg__e" x1="2.843" x2="15.768" y1="24.902" y2="11.167" gradientUnits="userSpaceOnUse">
      <stop offset=".31" stop-color="#6978FF"/>
      <stop offset=".36" stop-color="#5F87FF"/>
      <stop offset=".48" stop-color="#4DA4FF"/>
      <stop offset=".59" stop-color="#40B9FF"/>
      <stop offset=".7" stop-color="#38C6FF"/>
      <stop offset=".81" stop-color="#36CBFF"/>
      <stop offset="1" stop-color="#67FFFC"/>
    </linearGradient>
    <linearGradient id="lightlink-short_svg__f" x1="14.042" x2=".226" y1=".715" y2="15.021" gradientUnits="userSpaceOnUse">
      <stop stop-color="#6978FF"/>
      <stop offset=".09" stop-color="#5F87FF"/>
      <stop offset=".28" stop-color="#4DA4FF"/>
      <stop offset=".46" stop-color="#40B9FF"/>
      <stop offset=".64" stop-color="#38C6FF"/>
      <stop offset=".81" stop-color="#36CBFF"/>
      <stop offset="1" stop-color="#67FFFC"/>
    </linearGradient>
  </defs>
</svg>
